;START_OF_HEADER
;HEADER_VERSION:0.1
;FLAVOR:Griffin
;GENERATOR.NAME:Cura_SteamEngine
;GENERATOR.VERSION:4.0.0
;GENERATOR.BUILD_DATE:2019-03-19
;TARGET_MACHINE.NAME:Ultimaker S5
;EXTRUDER_TRAIN.0.INITIAL_TEMPERATURE:200
;EXTRUDER_TRAIN.0.MATERIAL.VOLUME_USED:18423
;EXTRUDER_TRAIN.0.MATERIAL.GUID:506c9f0d-e3aa-4bd4-b2d2-23e2425b1aa9
;EXTRUDER_TRAIN.0.NOZZLE.DIAMETER:0.4
;EXTRUDER_TRAIN.0.NOZZLE.NAME:AA 0.4
;BUILD_PLATE.TYPE:glass
;BUILD_PLATE.INITIAL_TEMPERATURE:60
;PRINT.TIME:22315
;PRINT.GROUPS:1
;PRINT.SIZE.MIN.X:129.07
;PRINT.SIZE.MIN.Y:78.07
;PRINT.SIZE.MIN.Z:0.2
;PRINT.SIZE.MAX.X:200.93
;PRINT.SIZE.MAX.Y:161.93
;PRINT.SIZE.MAX.Z:24
;END_OF_HEADER
;Generated with Cura_SteamEngine 4.0.0
T0
M82 ;absolute extrusion mode

G92 E0
M109 S200
G280 S1
G0 Z20.001
G1 F1500 E-6.5
;LAYER_COUNT:240
;LAYER:0
M107
M204 S625
M205 X10 Y10
G0 F2571.4 X199.954 Y158.547 Z0.2
M204 S500
M205 X5 Y5
;TYPE:SKIRT
G1 F1500 E0
G1 F1200 X199.539 Y159.165 E0.0098
G1 X199.06 Y159.735 E0.01961
G1 X198.523 Y160.25 E0.0294
G1 X197.934 Y160.705 E0.0392
G1 X197.3 Y161.094 E0.049
G1 X196.627 Y161.413 E0.0588
G1 X195.924 Y161.658 E0.06861
G1 X195.199 Y161.826 E0.07841
G1 X194.46 Y161.915 E0.08821
G1 X194 Y161.93 E0.09427
G1 X136 Y161.93 E0.85798
G1 X135.257 Y161.89 E0.86777
G1 X134.522 Y161.771 E0.87758
G1 X133.804 Y161.573 E0.88738
G1 X133.112 Y161.3 E0.89718
G1 X132.453 Y160.954 E0.90698
G1 X131.835 Y160.539 E0.91678
G1 X131.265 Y160.06 E0.92659
G1 X130.75 Y159.523 E0.93638
G1 X130.295 Y158.934 E0.94618
G1 X129.906 Y158.3 E0.95598
G1 X129.587 Y157.627 E0.96578
G1 X129.342 Y156.924 E0.97559
G1 X129.174 Y156.199 E0.98539
G1 X129.085 Y155.46 E0.99519
G1 X129.07 Y155 E1.00125
G1 X129.07 Y85 E1.92296
G1 X129.11 Y84.257 E1.93276
G1 X129.229 Y83.522 E1.94257
G1 X129.427 Y82.804 E1.95237
G1 X129.7 Y82.112 E1.96217
G1 X130.046 Y81.453 E1.97197
G1 X130.461 Y80.835 E1.98177
G1 X130.94 Y80.265 E1.99157
G1 X131.477 Y79.75 E2.00137
G1 X132.066 Y79.295 E2.01117
G1 X132.7 Y78.906 E2.02097
G1 X133.373 Y78.587 E2.03077
G1 X134.076 Y78.342 E2.04058
G1 X134.801 Y78.174 E2.05037
G1 X135.54 Y78.085 E2.06018
G1 X136 Y78.07 E2.06624
G1 X194 Y78.07 E2.82994
G1 X194.743 Y78.11 E2.83974
G1 X195.478 Y78.229 E2.84955
G1 X196.196 Y78.427 E2.85935
G1 X196.888 Y78.7 E2.86915
G1 X197.547 Y79.046 E2.87895
G1 X198.165 Y79.461 E2.88875
G1 X198.735 Y79.94 E2.89856
G1 X199.25 Y80.477 E2.90835
G1 X199.705 Y81.066 E2.91815
G1 X200.094 Y81.7 E2.92795
G1 X200.413 Y82.373 E2.93775
G1 X200.658 Y83.076 E2.94756
G1 X200.826 Y83.801 E2.95736
G1 X200.915 Y84.54 E2.96716
G1 X200.93 Y85 E2.97322
G1 X200.93 Y155 E3.89493
G1 X200.89 Y155.743 E3.90473
G1 X200.771 Y156.478 E3.91454
G1 X200.573 Y157.196 E3.92434
G1 X200.3 Y157.888 E3.93414
G1 X199.954 Y158.547 E3.94394
M204 S625
M205 X10 Y10
G0 F2571.4 X199.535 Y158.427
M204 S500
M205 X5 Y5
G1 F1200 X199.122 Y159.018 E3.95343
G1 X198.646 Y159.56 E3.96293
G1 X198.113 Y160.046 E3.97243
G1 X197.529 Y160.47 E3.98193
G1 X196.902 Y160.827 E3.99143
G1 X196.24 Y161.113 E4.00093
G1 X195.55 Y161.323 E4.01042
G1 X194.841 Y161.455 E4.01992
G1 X194 Y161.51 E4.03102
G1 X136 Y161.51 E4.79473
G1 X135.28 Y161.47 E4.80422
G1 X134.568 Y161.351 E4.81373
G1 X133.874 Y161.153 E4.82323
G1 X133.207 Y160.88 E4.83272
G1 X132.573 Y160.535 E4.84222
G1 X131.982 Y160.122 E4.85172
G1 X131.44 Y159.646 E4.86121
G1 X130.954 Y159.113 E4.87071
G1 X130.53 Y158.529 E4.88022
G1 X130.173 Y157.902 E4.88972
G1 X129.887 Y157.24 E4.89921
G1 X129.677 Y156.55 E4.90871
G1 X129.545 Y155.841 E4.9182
G1 X129.49 Y155 E4.9293
G1 X129.49 Y85 E5.85102
G1 X129.53 Y84.28 E5.86051
G1 X129.649 Y83.568 E5.87002
G1 X129.847 Y82.874 E5.87952
G1 X130.12 Y82.207 E5.88901
G1 X130.465 Y81.573 E5.89852
G1 X130.878 Y80.982 E5.90801
G1 X131.354 Y80.44 E5.91751
G1 X131.887 Y79.954 E5.92701
G1 X132.471 Y79.53 E5.93651
G1 X133.098 Y79.173 E5.94601
G1 X133.76 Y78.887 E5.9555
G1 X134.45 Y78.677 E5.965
G1 X135.159 Y78.545 E5.9745
G1 X136 Y78.49 E5.9856
G1 X194 Y78.49 E6.7493
G1 X194.72 Y78.53 E6.7588
G1 X195.432 Y78.649 E6.7683
G1 X196.126 Y78.847 E6.77781
G1 X196.793 Y79.12 E6.7873
G1 X197.427 Y79.465 E6.7968
G1 X198.018 Y79.878 E6.80629
G1 X198.56 Y80.354 E6.81579
G1 X199.046 Y80.887 E6.82529
G1 X199.47 Y81.471 E6.83479
G1 X199.827 Y82.098 E6.84429
G1 X200.113 Y82.76 E6.85379
G1 X200.323 Y83.45 E6.86329
G1 X200.455 Y84.159 E6.87278
G1 X200.51 Y85 E6.88388
G1 X200.51 Y155 E7.8056
G1 X200.47 Y155.72 E7.81509
G1 X200.351 Y156.432 E7.8246
G1 X200.153 Y157.126 E7.8341
G1 X199.88 Y157.793 E7.84359
G1 X199.535 Y158.427 E7.85309
M204 S625
M205 X10 Y10
G0 F2571.4 X199.117 Y158.302
M204 S500
M205 X5 Y5
G1 F1200 X198.705 Y158.866 E7.86229
G1 X198.232 Y159.379 E7.87148
G1 X197.704 Y159.834 E7.88066
G1 X197.127 Y160.226 E7.88984
G1 X196.508 Y160.549 E7.89904
G1 X195.857 Y160.8 E7.90822
G1 X195.181 Y160.974 E7.91741
G1 X194.49 Y161.07 E7.9266
G1 X194 Y161.09 E7.93306
G1 X136 Y161.09 E8.69677
G1 X135.303 Y161.05 E8.70596
G1 X134.616 Y160.931 E8.71514
G1 X133.947 Y160.733 E8.72433
G1 X133.304 Y160.461 E8.73352
G1 X132.698 Y160.117 E8.74269
G1 X132.134 Y159.705 E8.75189
G1 X131.621 Y159.232 E8.76108
G1 X131.166 Y158.704 E8.77026
G1 X130.774 Y158.127 E8.77944
G1 X130.451 Y157.508 E8.78864
G1 X130.2 Y156.857 E8.79782
G1 X130.026 Y156.181 E8.80701
G1 X129.93 Y155.49 E8.8162
G1 X129.91 Y155 E8.82266
G1 X129.91 Y85 E9.74437
G1 X129.95 Y84.303 E9.75357
G1 X130.069 Y83.616 E9.76275
G1 X130.267 Y82.947 E9.77193
G1 X130.539 Y82.304 E9.78113
G1 X130.883 Y81.698 E9.7903
G1 X131.295 Y81.134 E9.7995
G1 X131.768 Y80.621 E9.80869
G1 X132.296 Y80.166 E9.81787
G1 X132.873 Y79.774 E9.82705
G1 X133.492 Y79.451 E9.83624
G1 X134.143 Y79.2 E9.84543
G1 X134.819 Y79.026 E9.85462
G1 X135.51 Y78.93 E9.86381
G1 X136 Y78.91 E9.87027
G1 X194 Y78.91 E10.63397
G1 X194.697 Y78.95 E10.64317
G1 X195.384 Y79.069 E10.65235
G1 X196.053 Y79.267 E10.66153
G1 X196.696 Y79.539 E10.67073
G1 X197.302 Y79.883 E10.6799
G1 X197.866 Y80.295 E10.6891
G1 X198.379 Y80.768 E10.69829
G1 X198.834 Y81.296 E10.70747
G1 X199.226 Y81.873 E10.71665
G1 X199.549 Y82.492 E10.72584
G1 X199.8 Y83.143 E10.73503
G1 X199.974 Y83.819 E10.74422
G1 X200.07 Y84.51 E10.75341
G1 X200.09 Y85 E10.75987
G1 X200.09 Y155 E11.68158
G1 X200.05 Y155.697 E11.69078
G1 X199.931 Y156.384 E11.69996
G1 X199.733 Y157.053 E11.70914
G1 X199.461 Y157.696 E11.71834
G1 X199.117 Y158.302 E11.72751
M204 S625
M205 X10 Y10
G0 F2571.4 X198.699 Y158.173
M204 S500
M205 X5 Y5
G1 F1200 X198.29 Y158.708 E11.73638
G1 X197.82 Y159.19 E11.74524
G1 X197.296 Y159.613 E11.75411
G1 X196.726 Y159.972 E11.76298
G1 X196.118 Y160.26 E11.77184
G1 X195.48 Y160.474 E11.7807
G1 X194.82 Y160.61 E11.78957
G1 X194 Y160.67 E11.8004
G1 X136 Y160.67 E12.56411
G1 X135.328 Y160.63 E12.57297
G1 X134.665 Y160.511 E12.58184
G1 X134.022 Y160.314 E12.5907
G1 X133.406 Y160.042 E12.59956
G1 X132.827 Y159.699 E12.60842
G1 X132.292 Y159.29 E12.61729
G1 X131.81 Y158.82 E12.62616
G1 X131.387 Y158.296 E12.63502
G1 X131.028 Y157.726 E12.64389
G1 X130.74 Y157.118 E12.65275
G1 X130.526 Y156.48 E12.66161
G1 X130.39 Y155.82 E12.67049
G1 X130.33 Y155 E12.68131
G1 X130.33 Y85 E13.60303
G1 X130.37 Y84.328 E13.61189
G1 X130.489 Y83.665 E13.62076
G1 X130.686 Y83.022 E13.62962
G1 X130.958 Y82.406 E13.63848
G1 X131.301 Y81.827 E13.64735
G1 X131.71 Y81.292 E13.65621
G1 X132.18 Y80.81 E13.66508
G1 X132.704 Y80.387 E13.67394
G1 X133.274 Y80.028 E13.68281
G1 X133.882 Y79.74 E13.69167
G1 X134.52 Y79.526 E13.70053
G1 X135.18 Y79.39 E13.70941
G1 X136 Y79.33 E13.72023
G1 X194 Y79.33 E14.48394
G1 X194.672 Y79.37 E14.49281
G1 X195.335 Y79.489 E14.50168
G1 X195.978 Y79.686 E14.51053
G1 X196.594 Y79.958 E14.5194
G1 X197.173 Y80.301 E14.52826
G1 X197.708 Y80.71 E14.53713
G1 X198.19 Y81.18 E14.54599
G1 X198.613 Y81.704 E14.55486
G1 X198.972 Y82.274 E14.56373
G1 X199.26 Y82.882 E14.57259
G1 X199.474 Y83.52 E14.58145
G1 X199.61 Y84.18 E14.59032
G1 X199.67 Y85 E14.60115
G1 X199.67 Y155 E15.52286
G1 X199.63 Y155.672 E15.53173
G1 X199.511 Y156.335 E15.5406
G1 X199.314 Y156.978 E15.54945
G1 X199.042 Y157.594 E15.55832
G1 X198.699 Y158.173 E15.56718
M204 S625
M205 X10 Y10
G0 F2571.4 X198.623 Y157.489
M204 S500
M205 X5 Y5
G1 F1200 X198.281 Y158.039 E15.57571
G1 X197.874 Y158.543 E15.58424
G1 X197.408 Y158.993 E15.59277
G1 X196.891 Y159.382 E15.60129
G1 X196.329 Y159.705 E15.60982
G1 X195.732 Y159.956 E15.61835
G1 X195.108 Y160.132 E15.62689
G1 X194.468 Y160.229 E15.63541
G1 X194 Y160.25 E15.64158
G1 X136 Y160.25 E16.40529
G1 X135.353 Y160.21 E16.41382
G1 X134.717 Y160.091 E16.42234
G1 X134.1 Y159.894 E16.43087
G1 X133.511 Y159.623 E16.43941
G1 X132.961 Y159.281 E16.44794
G1 X132.457 Y158.874 E16.45647
G1 X132.007 Y158.408 E16.465
G1 X131.618 Y157.891 E16.47352
G1 X131.295 Y157.329 E16.48205
G1 X131.044 Y156.732 E16.49058
G1 X130.868 Y156.108 E16.49912
G1 X130.771 Y155.468 E16.50764
G1 X130.75 Y155 E16.51381
G1 X130.75 Y85 E17.43552
G1 X130.79 Y84.353 E17.44406
G1 X130.909 Y83.717 E17.45258
G1 X131.106 Y83.1 E17.46111
G1 X131.377 Y82.511 E17.46965
G1 X131.719 Y81.961 E17.47817
G1 X132.126 Y81.457 E17.4867
G1 X132.592 Y81.007 E17.49523
G1 X133.109 Y80.618 E17.50375
G1 X133.671 Y80.295 E17.51229
G1 X134.268 Y80.044 E17.52082
G1 X134.892 Y79.868 E17.52935
G1 X135.532 Y79.771 E17.53788
G1 X136 Y79.75 E17.54404
G1 X194 Y79.75 E18.30775
G1 X194.647 Y79.79 E18.31629
G1 X195.283 Y79.909 E18.32481
G1 X195.9 Y80.106 E18.33334
G1 X196.489 Y80.377 E18.34187
G1 X197.039 Y80.719 E18.3504
G1 X197.543 Y81.126 E18.35893
G1 X197.993 Y81.592 E18.36746
G1 X198.382 Y82.109 E18.37598
G1 X198.705 Y82.671 E18.38452
G1 X198.956 Y83.268 E18.39304
G1 X199.132 Y83.892 E18.40158
G1 X199.229 Y84.532 E18.4101
G1 X199.25 Y85 E18.41627
G1 X199.25 Y155 E19.33799
G1 X199.21 Y155.647 E19.34653
G1 X199.091 Y156.283 E19.35505
G1 X198.894 Y156.9 E19.36357
G1 X198.623 Y157.489 E19.37211
M204 S625
M205 X10 Y10
G0 F2571.4 X198.204 Y157.378
M204 S500
M205 X5 Y5
G1 F1200 X197.864 Y157.898 E19.38029
G1 X197.46 Y158.37 E19.38847
G1 X196.998 Y158.787 E19.39667
G1 X196.488 Y159.14 E19.40483
G1 X195.936 Y159.425 E19.41301
G1 X195.351 Y159.637 E19.42121
G1 X194.745 Y159.772 E19.42938
G1 X194 Y159.83 E19.43922
G1 X136 Y159.83 E20.20293
G1 X135.38 Y159.79 E20.21111
G1 X134.77 Y159.671 E20.21929
G1 X134.181 Y159.474 E20.22747
G1 X133.622 Y159.204 E20.23565
G1 X133.102 Y158.864 E20.24383
G1 X132.63 Y158.46 E20.25201
G1 X132.213 Y157.998 E20.2602
G1 X131.86 Y157.488 E20.26837
G1 X131.575 Y156.936 E20.27655
G1 X131.363 Y156.351 E20.28474
G1 X131.228 Y155.745 E20.29292
G1 X131.17 Y155 E20.30276
G1 X131.17 Y85 E21.22447
G1 X131.21 Y84.38 E21.23266
G1 X131.329 Y83.77 E21.24084
G1 X131.526 Y83.181 E21.24902
G1 X131.796 Y82.622 E21.25719
G1 X132.136 Y82.102 E21.26537
G1 X132.54 Y81.63 E21.27355
G1 X133.002 Y81.213 E21.28175
G1 X133.512 Y80.86 E21.28991
G1 X134.064 Y80.575 E21.29809
G1 X134.649 Y80.363 E21.30629
G1 X135.255 Y80.228 E21.31446
G1 X136 Y80.17 E21.3243
G1 X194 Y80.17 E22.08801
G1 X194.62 Y80.21 E22.09619
G1 X195.23 Y80.329 E22.10438
G1 X195.819 Y80.526 E22.11255
G1 X196.378 Y80.796 E22.12073
G1 X196.898 Y81.136 E22.12891
G1 X197.37 Y81.54 E22.13709
G1 X197.787 Y82.002 E22.14528
G1 X198.14 Y82.512 E22.15345
G1 X198.425 Y83.064 E22.16163
G1 X198.637 Y83.649 E22.16982
G1 X198.772 Y84.255 E22.178
G1 X198.83 Y85 E22.18784
G1 X198.83 Y155 E23.10956
G1 X198.79 Y155.62 E23.11774
G1 X198.671 Y156.23 E23.12592
G1 X198.474 Y156.819 E23.1341
G1 X198.204 Y157.378 E23.14227
M204 S625
M205 X10 Y10
G0 F2571.4 X197.785 Y157.263
M204 S500
M205 X5 Y5
G1 F1200 X197.447 Y157.751 E23.15009
G1 X197.046 Y158.189 E23.15791
G1 X196.59 Y158.569 E23.16572
G1 X196.087 Y158.885 E23.17355
G1 X195.547 Y159.13 E23.18135
G1 X194.978 Y159.3 E23.18917
G1 X194.392 Y159.393 E23.19699
G1 X194 Y159.41 E23.20215
G1 X136 Y159.41 E23.96586
G1 X135.408 Y159.37 E23.97367
G1 X134.826 Y159.251 E23.9815
G1 X134.266 Y159.055 E23.98931
G1 X133.737 Y158.785 E23.99713
G1 X133.249 Y158.447 E24.00494
G1 X132.811 Y158.046 E24.01276
G1 X132.431 Y157.59 E24.02058
G1 X132.115 Y157.087 E24.0284
G1 X131.87 Y156.547 E24.03621
G1 X131.7 Y155.978 E24.04403
G1 X131.607 Y155.392 E24.05184
G1 X131.59 Y155 E24.05701
G1 X131.59 Y85 E24.97873
G1 X131.63 Y84.408 E24.98654
G1 X131.749 Y83.826 E24.99436
G1 X131.945 Y83.266 E25.00217
G1 X132.215 Y82.737 E25.00999
G1 X132.553 Y82.249 E25.01781
G1 X132.954 Y81.811 E25.02563
G1 X133.41 Y81.431 E25.03344
G1 X133.913 Y81.115 E25.04127
G1 X134.453 Y80.87 E25.04907
G1 X135.022 Y80.7 E25.05689
G1 X135.608 Y80.607 E25.06471
G1 X136 Y80.59 E25.06987
G1 X194 Y80.59 E25.83358
G1 X194.592 Y80.63 E25.84139
G1 X195.174 Y80.749 E25.84922
G1 X195.734 Y80.945 E25.85703
G1 X196.263 Y81.215 E25.86485
G1 X196.751 Y81.553 E25.87267
G1 X197.189 Y81.954 E25.88048
G1 X197.569 Y82.41 E25.8883
G1 X197.885 Y82.913 E25.89612
G1 X198.13 Y83.453 E25.90393
G1 X198.3 Y84.022 E25.91175
G1 X198.393 Y84.608 E25.91956
G1 X198.41 Y85 E25.92473
G1 X198.41 Y155 E26.84645
G1 X198.37 Y155.592 E26.85426
G1 X198.251 Y156.174 E26.86208
G1 X198.055 Y156.734 E26.86989
G1 X197.785 Y157.263 E26.87771
M204 S625
M205 X10 Y10
G0 F2571.4 X197.367 Y157.141
M204 S500
M205 X5 Y5
G1 F1200 X197.031 Y157.595 E26.88515
G1 X196.634 Y157.997 E26.89259
G1 X196.185 Y158.339 E26.90002
G1 X195.691 Y158.614 E26.90747
G1 X195.164 Y158.816 E26.9149
G1 X194.614 Y158.942 E26.92233
G1 X194 Y158.99 E26.93044
G1 X136 Y158.99 E27.69415
G1 X135.437 Y158.95 E27.70158
G1 X134.885 Y158.831 E27.70901
G1 X134.355 Y158.635 E27.71645
G1 X133.859 Y158.367 E27.72388
G1 X133.405 Y158.031 E27.73131
G1 X133.003 Y157.634 E27.73875
G1 X132.661 Y157.185 E27.74619
G1 X132.386 Y156.691 E27.75363
G1 X132.184 Y156.164 E27.76106
G1 X132.058 Y155.614 E27.76849
G1 X132.01 Y155 E27.7766
G1 X132.01 Y85 E28.69832
G1 X132.05 Y84.437 E28.70575
G1 X132.169 Y83.885 E28.71319
G1 X132.365 Y83.355 E28.72063
G1 X132.633 Y82.859 E28.72805
G1 X132.969 Y82.405 E28.73549
G1 X133.366 Y82.003 E28.74293
G1 X133.815 Y81.661 E28.75036
G1 X134.309 Y81.386 E28.7578
G1 X134.836 Y81.184 E28.76523
G1 X135.386 Y81.058 E28.77266
G1 X136 Y81.01 E28.78077
G1 X194 Y81.01 E29.54448
G1 X194.563 Y81.05 E29.55191
G1 X195.115 Y81.169 E29.55935
G1 X195.645 Y81.365 E29.56679
G1 X196.141 Y81.633 E29.57421
G1 X196.595 Y81.969 E29.58165
G1 X196.997 Y82.366 E29.58909
G1 X197.339 Y82.815 E29.59652
G1 X197.614 Y83.309 E29.60397
G1 X197.816 Y83.836 E29.6114
G1 X197.942 Y84.386 E29.61883
G1 X197.99 Y85 E29.62694
G1 X197.99 Y155 E30.54865
G1 X197.95 Y155.563 E30.55609
G1 X197.831 Y156.115 E30.56352
G1 X197.635 Y156.645 E30.57096
G1 X197.367 Y157.141 E30.57839
M204 S625
M205 X10 Y10
G0 F2571.4 X196.949 Y157.013
M204 S500
M205 X5 Y5
G1 F1200 X196.615 Y157.43 E30.58542
G1 X196.224 Y157.793 E30.59245
G1 X195.782 Y158.093 E30.59948
G1 X195.301 Y158.325 E30.60651
G1 X194.79 Y158.481 E30.61355
G1 X194 Y158.57 E30.62401
G1 X136 Y158.57 E31.38772
G1 X135.467 Y158.53 E31.39476
G1 X134.947 Y158.411 E31.40179
G1 X134.45 Y158.216 E31.40882
G1 X133.987 Y157.949 E31.41585
G1 X133.57 Y157.615 E31.42289
G1 X133.207 Y157.224 E31.42991
G1 X132.907 Y156.782 E31.43695
G1 X132.675 Y156.301 E31.44398
G1 X132.519 Y155.79 E31.45101
G1 X132.43 Y155 E31.46148
G1 X132.43 Y85 E32.3832
G1 X132.47 Y84.467 E32.39024
G1 X132.589 Y83.947 E32.39726
G1 X132.784 Y83.45 E32.40429
G1 X133.051 Y82.987 E32.41133
G1 X133.385 Y82.57 E32.41836
G1 X133.776 Y82.207 E32.42539
G1 X134.218 Y81.907 E32.43242
G1 X134.699 Y81.675 E32.43945
G1 X135.21 Y81.519 E32.44649
G1 X136 Y81.43 E32.45696
G1 X194 Y81.43 E33.22067
G1 X194.533 Y81.47 E33.2277
G1 X195.053 Y81.589 E33.23473
